imgs/map_icon.svg

<svg width="80" height="80" viewBox="0 0 80 80" fill="none" xmlns="http://www.w3.org/2000/svg">
<circle cx="40" cy="40" r="40" fill="#E9E9EC"/>
<path fill-rule="evenodd" clip-rule="evenodd" d="M22.2868 29.011C19.592 32.6649 18 37.1818 18 42.0728C18 46.9639 19.592 51.4808 22.2868 55.1347C24.7323 54.2332 27.4559 53.514 30.381 53.0153C30.7262 52.9577 31.0715 52.9002 31.4167 52.8522C30.7454 49.6299 30.3714 45.9665 30.3714 42.0824C30.3714 40.2891 30.4481 38.5437 30.6015 36.8654L29.8631 38.0641L24.6268 29.807C23.8213 29.5672 23.0349 29.2987 22.2868 29.0206V29.011Z" fill="#0B7572"/>
<path fill-rule="evenodd" clip-rule="evenodd" d="M30.6208 54.4444C27.9644 54.8952 25.4805 55.5377 23.246 56.3337C23.8214 57.0146 24.4352 57.6571 25.0969 58.2517C28.1466 61.0617 31.9827 63.0181 36.2407 63.7469C35.0132 62.5098 33.9199 60.6876 33.028 58.4052C32.5389 57.1584 32.1073 55.7679 31.7333 54.2622C31.3593 54.3197 30.9853 54.3773 30.6208 54.4444Z" fill="#0B7572"/>
<path fill-rule="evenodd" clip-rule="evenodd" d="M33.2003 54.0705C33.5456 55.4515 33.9484 56.727 34.3991 57.8778C35.8952 61.7043 37.8803 64.0731 40.0094 64.0731C42.1384 64.0731 44.1236 61.7043 45.6196 57.8778C46.0704 56.727 46.4732 55.4515 46.8184 54.0705C44.6414 53.8116 42.359 53.6677 40.019 53.6677C37.6694 53.6677 35.3965 53.802 33.2195 54.0705H33.2003Z" fill="#0B7572"/>
<path fill-rule="evenodd" clip-rule="evenodd" d="M31.8386 42.0638C31.8386 45.8903 32.2126 49.4962 32.8744 52.6322C35.1664 52.3541 37.5544 52.2006 40.0095 52.2006C42.4646 52.2006 44.8525 52.3541 47.1446 52.6322C47.8063 49.4866 48.1803 45.8903 48.1803 42.0638C48.1803 38.2373 47.8063 34.6314 47.1446 31.4954C44.8525 31.7735 42.4646 31.9269 40.0095 31.9269C37.89 31.9269 35.8186 31.8118 33.8238 31.6009L32.9319 33.049L32.4428 33.845C32.0496 36.3864 31.8386 39.1579 31.8386 42.0734V42.0638Z" fill="#0B7572"/>
<path fill-rule="evenodd" clip-rule="evenodd" d="M34.6676 30.2198C36.3939 30.3829 38.1776 30.4596 39.9998 30.4596C42.3494 30.4596 44.6223 30.3253 46.7992 30.0568C46.454 28.6758 46.0512 27.4003 45.6005 26.2495C44.1044 22.423 42.1192 20.0542 39.9902 20.0542C39.3572 20.0542 38.7339 20.2652 38.1297 20.668C38.1585 20.8502 38.1776 21.042 38.1872 21.2338C38.1872 21.2434 38.1872 21.2626 38.1872 21.2722C38.1872 21.2913 38.1872 21.3201 38.1968 21.3393C38.2064 21.4352 38.216 21.5311 38.216 21.627C38.216 21.6366 38.216 21.6366 38.216 21.6558C38.216 21.7708 38.216 21.8763 38.216 21.9914C38.216 23.6793 37.5159 25.5398 36.6336 26.9687L34.6484 30.2102L34.6676 30.2198Z" fill="#0B7572"/>
<path fill-rule="evenodd" clip-rule="evenodd" d="M46.972 25.7217C47.4612 26.9684 47.8927 28.359 48.2667 29.8647C48.6407 29.8071 49.0148 29.7496 49.3792 29.6825C52.0357 29.2317 54.5195 28.5892 56.7541 27.7932C56.1786 27.1123 55.5553 26.4697 54.9031 25.8655C51.8631 23.0652 48.0174 21.1088 43.7689 20.3704C44.9965 21.6075 46.0898 23.4296 46.9816 25.7121L46.972 25.7217Z" fill="#0B7572"/>
<path fill-rule="evenodd" clip-rule="evenodd" d="M48.5835 31.2938C49.2548 34.5161 49.6288 38.1796 49.6288 42.0636C49.6288 45.9477 49.2548 49.6111 48.5835 52.8334C48.9287 52.8814 49.274 52.9389 49.6192 52.9965C52.5443 53.4952 55.2679 54.2144 57.7134 55.1159C60.4082 51.462 62.0002 46.9451 62.0002 42.054C62.0002 37.163 60.4082 32.6461 57.7134 28.9922C55.2679 29.8937 52.5443 30.6129 49.6192 31.1116C49.274 31.1692 48.9287 31.2267 48.5835 31.2747V31.2938Z" fill="#0B7572"/>
<path fill-rule="evenodd" clip-rule="evenodd" d="M48.2669 54.2718C47.9025 55.7775 47.4613 57.168 46.9722 58.4148C46.0804 60.6876 44.9967 62.5194 43.7595 63.7565C48.0176 63.0181 51.8537 61.0713 54.8938 58.2613C55.5459 57.6571 56.1692 57.0146 56.7447 56.3337C54.5101 55.5377 52.0263 54.9048 49.3698 54.4444C49.0054 54.3773 48.6313 54.3197 48.2573 54.2622L48.2669 54.2718Z" fill="#0B7572"/>
<path fill-rule="evenodd" clip-rule="evenodd" d="M32.0687 23.1037C31.4741 23.6983 30.6494 24.0723 29.7383 24.0723C28.8272 24.0723 28.0025 23.7079 27.4079 23.1037C26.8133 22.5091 26.4393 21.6844 26.4393 20.7733C26.4393 19.8622 26.8037 19.0375 27.4079 18.4429C28.0025 17.8483 28.8272 17.4743 29.7383 17.4743C30.6494 17.4743 31.4741 17.8387 32.0687 18.4429C32.6633 19.0375 33.0373 19.8622 33.0373 20.7733C33.0373 21.6844 32.6729 22.5091 32.0687 23.1037ZM31.7426 32.1952C31.7235 32.224 31.7043 32.2528 31.6851 32.2816L31.7426 32.1952ZM36.7487 21.3679C36.7487 21.3775 36.7487 21.3871 36.7487 21.3871C36.7487 21.3775 36.7487 21.3679 36.7487 21.3679ZM24.7802 17.0331C23.5047 18.3086 22.7183 20.0636 22.7183 22.0009C22.7183 23.1804 23.3608 24.8204 24.3006 26.5946C24.3102 26.6041 24.3198 26.6137 24.339 26.6233C24.387 26.6713 24.4349 26.7288 24.4637 26.7864L25.0966 27.7837C25.1062 27.7933 25.1062 27.8029 25.1158 27.8125L29.863 35.2929L30.8795 33.6434C30.8987 33.6146 30.9179 33.5762 30.9371 33.5475L31.7043 32.3007L31.7618 32.2048L35.4349 26.2205C36.25 24.5806 36.7967 23.0941 36.7967 22.0104C36.7967 21.8858 36.7967 21.7995 36.7967 21.7323C36.7967 21.7227 36.7967 21.7131 36.7967 21.7131C36.7967 21.6556 36.7871 21.5789 36.7775 21.483C36.7775 21.4638 36.7775 21.4446 36.7679 21.4158C36.7679 21.4063 36.7679 21.3967 36.7679 21.3967C36.6145 19.7088 35.8664 18.1935 34.7348 17.0619C33.4593 15.7864 31.7043 15 29.7671 15C27.8298 15 26.0748 15.7864 24.7993 17.0619L24.7802 17.0331Z" fill="#0B7572"/>
</svg>

<svg xmlns="http://www.w3.org/2000/svg" width="80" height="80" fill="none"><circle cx="40" cy="40" r="40" fill="#E9E9EC"/><path fill="#0B7572" fill-rule="evenodd" d="M22.287 29.011A21.928 21.928 0 0 0 18 42.073c0 4.89 1.592 9.408 4.287 13.062 2.445-.902 5.169-1.621 8.094-2.12.345-.057.69-.115 1.036-.163-.672-3.222-1.046-6.885-1.046-10.77 0-1.793.077-3.538.23-5.217l-.738 1.2-5.236-8.258a37.215 37.215 0 0 1-2.34-.786v-.01ZM30.62 54.444c-2.656.451-5.14 1.094-7.374 1.89a19.43 19.43 0 0 0 1.85 1.918 21.881 21.881 0 0 0 11.145 5.495c-1.228-1.237-2.321-3.06-3.213-5.342a33.559 33.559 0 0 1-1.295-4.143 38.48 38.48 0 0 0-1.112.182ZM33.2 54.07a31.294 31.294 0 0 0 1.2 3.808c1.495 3.826 3.48 6.195 5.61 6.195 2.128 0 4.114-2.369 5.61-6.195.45-1.151.853-2.426 1.198-3.807a57.72 57.72 0 0 0-6.799-.403c-2.35 0-4.622.134-6.8.403H33.2ZM31.839 42.064c0 3.826.374 7.432 1.035 10.568a59.294 59.294 0 0 1 14.27 0c.662-3.145 1.036-6.742 1.036-10.568 0-3.827-.374-7.433-1.035-10.569a58.922 58.922 0 0 1-13.32.105l-.893 1.449-.49.796c-.392 2.541-.603 5.313-.603 8.228v-.01ZM34.668 30.22c1.726.163 3.51.24 5.332.24 2.35 0 4.622-.135 6.8-.403a31.277 31.277 0 0 0-1.2-3.807c-1.496-3.827-3.48-6.196-5.61-6.196-.633 0-1.256.211-1.86.614.028.182.048.374.057.566v.038c0 .02 0 .048.01.067.01.096.019.192.019.288V21.991c0 1.688-.7 3.549-1.582 4.978l-1.986 3.241.02.01ZM46.972 25.722c.49 1.246.92 2.637 1.295 4.143.374-.058.748-.115 1.112-.182 2.657-.451 5.14-1.094 7.375-1.89A21.973 21.973 0 0 0 43.77 20.37c1.227 1.238 2.32 3.06 3.213 5.342l-.01.01ZM48.584 31.294c.67 3.222 1.045 6.886 1.045 10.77 0 3.884-.374 7.547-1.045 10.77.345.047.69.105 1.035.162 2.925.5 5.649 1.218 8.094 2.12A21.928 21.928 0 0 0 62 42.054c0-4.891-1.592-9.408-4.287-13.062-2.445.902-5.169 1.62-8.094 2.12-.345.057-.69.115-1.035.163v.019ZM48.267 54.272a31.996 31.996 0 0 1-1.295 4.143c-.892 2.273-1.975 4.104-3.212 5.342a21.889 21.889 0 0 0 11.134-5.496 21.985 21.985 0 0 0 1.85-1.927c-2.234-.796-4.718-1.43-7.374-1.89a38.423 38.423 0 0 0-1.113-.182l.01.01ZM32.069 23.104a3.29 3.29 0 0 1-4.661 0 3.29 3.29 0 0 1 0-4.661 3.29 3.29 0 0 1 4.66 0 3.29 3.29 0 0 1 0 4.66Zm-.326 9.091-.058.087.058-.087Zm5.006-10.827v.02-.02ZM24.78 17.033a7.002 7.002 0 0 0-2.062 4.968c0 1.18.643 2.82 1.583 4.594.01.01.019.019.038.028a.67.67 0 0 1 .125.163l.633.998c.01.01.01.019.019.029l4.747 7.48 1.017-1.65c.019-.028.038-.067.057-.096l.767-1.246.058-.096 3.673-5.984c.815-1.64 1.362-3.127 1.362-4.21V21.712c0-.057-.01-.134-.02-.23 0-.02 0-.038-.01-.067v-.02a7.02 7.02 0 0 0-2.032-4.334A7.002 7.002 0 0 0 29.767 15a7.002 7.002 0 0 0-4.968 2.062l-.019-.029Z" clip-rule="evenodd"/></svg>
